!!!OTL: Was sollen die Soldaten essen? (158), S. 345
!!!id: T0330
**kern
*clefG2
*k[]
*G:
{4g
=1
8g
8g
8g
8g
4g
4g
=2
4g
4d}
4r
=3
{8d
8d
=4
4b
4b
4a
4a
=5
4g}
2r
=6
{4dd
=7
8cc
8b
8a
8b
4b
4d}
=8
{8b
8a
8b
8cc
4ee
4dd
=9
4dd
4g}
4r
=10
{8g
8g
=11
8g
8g
8g
8g
4g}
=12
{8e
8e
=13
4e
4e
4d}
=14
{4d
=15
2b
4g
8d
8d
=16
2e
4d}
==
*-
!!!minrhy: 8
!!!meters: 4/4 ]  ZZ[7
!!!cut: Was sollen die Soldaten essen? (158), S. 345
!!!reg: Luxemburg
!!!trd: Singendes Volk, Esch-Alzette 1937, posth.
!!!rhy1: X_  XXXXX_X_  X_X_0_
!!!rhy2: XX  X_X_X_X_  X_0__
!!!key: T0330  08  G 4/4 ]  ZZ[7
!!!mod: SECHSTONSKALA DUR ?]  AMBITUS[9
!!!kad: -51-511-5-5
!!!akz: 111_321_43_365_11_-6-5_31-6-5_
!!!fot: 'a__b__c__d__e__f__g__
!!!for: 'a__b__aw_av_aw_bw_c__
!!!fok: '-__^a_\__^d_-__\__^__
!! PHRAS[VORWIEGEND AUFTAKTIG]
!!!fkt: historische, Kriegs- und Soldatenlieder
!!!bem: Junglinster, Vater des Versfassers, vor 1900
!! THILL, Mathias:
!! PR[33] 2K[3] 2G[6] 3K[11] 3G[6] 4A[6] 4Ü[0] 5A[0] 6K[0] 6G[0]
!! 7K[0] 7G[0] 8A[0] MEHR[0] SI[31] ABS[36] SR[8] SP[22]
!! ST[8] 2k[8] 2g[19] 3k[8] 3g[0] 4d[0] 4ü[0] 5d[0] 6k[0] 6g[0]
!! 7k[0] 7g[0] 8d[0] mehr[0] si[36] dm[-5] sr[28] sp[8]
!! 1F[79] 2F[18] 3F[0] 4F[0] LF[0] 2P[3] 3P[0] 4P[0] TRI[0] DF[3] AB[39]
!! TF[0] U3K[0] U3[0] U4[0] U4Ü[0] U5[3] U6K[0] U6[0] U7K[0] U7[0]
!! N1[5] N2K[0] N2[16] N3K[0] N3[30] N4[19] N4Ü[0] N5[19] N6K[0] N6[8]
!!!n7k: 0] N7[0] O1[0] O2K[0] O2[0] O3K[0] O3[0] HÖ[0
